!!!COM: Music21
!!!OTL: Marcha Procesional
!!!OMV: pezas_marchas_marcha-procesional-7_marcha-procesional-partitura.musicxml
**kern
*I"Bagpipes
*I'Bag
*clefG^2
*k[]
*M4/4
=1
!LO:TX:a:t=Adagio
*MM80
!LO:TX:a:t=[quarter]=80
4gg
8ddL
8ffJ
4ff
4gg
=
4ee
4gg
2ccc
=
4bb-X
4aa
4bb-
8aaL
8ggJ
=
4aa
8ggL
8ffJ
2ee
=
4gg
8ddL
8eeJ
4ff
4gg
=
4ee
4gg
2ccc
=
8aaL
8gg
8cc
8ddJ
8eeL
8dd
8gg
8ddJ
=
4cc
8.ccL
16ccJk
4cc
4r
!!linebreak:original
=||
*M4/4
!LO:TX:a:t=Adagio
*MM80
!LO:TX:a:t=[quarter]=80
4gg
8ddL
8ffJ
4ff
4gg
=
4ee
4gg
2ccc
=
4bb-X
4aa
4bb-
8aaL
8ggJ
=
4aa
8ggL
8ffJ
2ee
=
4gg
8ddL
8eeJ
4ff
4gg
=
4ee
4gg
2ccc
=
8aaL
8gg
8cc
8ddJ
8eeL
8dd
8gg
8ddJ
=
4cc
8.ccL
16ccJk
4cc
4r
!!linebreak:original
=||
4gg
4cc
4.ee
8dd
=
4cc
4ee
2gg
=
4ee
8ddL
8eeJ
8ffL
8gg
8ff
8eeJ
=
2dd
2aa
=
4gg
4b
4.dd
8cc
=
4b
4dd
2ff
=
8ggL
8ff
8ee
8ddJ
8ggL
8ff
8ee
8ddJ
=
4.cc
8.ccL
16ccJk
4cc
8r
==
8r
=
*-
